resources/svg/magsafe.svg

<svg xmlns="http://www.w3.org/2000/svg" viewBox="0 0 15 15" fill="currentColor"><path d="M12 0H3v3h9V0zm2 4H1v6h3v2h1v3h1v-3h3v3h1v-3h1v-2h3V4z" fill="currentColor"/></svg>

<svg xmlns="http://www.w3.org/2000/svg" viewBox="0 0 15 15" fill="currentColor"><path d="M12 0H3V3H12V0Z" fill="black"/><path d="M14 4H1V10H4V12H5V15H6V12H9V15H10V12H11V10H14V4Z" fill="black"/></svg>
